src/assets/icon/battle-points-white.svg

<svg width="100" height="100" viewBox="0 0 100 100" fill="none" xmlns="http://www.w3.org/2000/svg">
<g id="battle-points-white">
<g id="Group 387">
<path id="Subtract" fill-rule="evenodd" clip-rule="evenodd" d="M89.7402 19.9999C89.7402 33.1299 69.937 39.9998 50.3701 39.9998C30.8032 39.9998 11 33.1299 11 19.9999C11 6.86997 30.8032 0 50.3701 0C69.937 0 89.7402 6.86997 89.7402 19.9999ZM77.7704 11.3292C79.0309 12.2867 80.3929 13.5642 81.5127 15.018C82.6347 16.4747 83.4943 18.0834 83.7878 19.7066C84.0785 21.3136 83.8195 22.9568 82.6669 24.527C81.5043 26.1109 79.4132 27.6456 75.9921 28.9629L76.327 29.7938C79.8287 28.4455 82.0746 26.8363 83.3627 25.0815C84.6608 23.313 84.9661 21.4228 84.6337 19.585C84.3043 17.7635 83.3537 16.0162 82.1774 14.4889C80.999 12.9589 79.5747 11.6247 78.26 10.626L77.7704 11.3292ZM17.6019 16.6294C18.6112 13.4011 21.2181 10.9396 23.3301 9.66801L22.8695 8.89858C20.6537 10.2326 17.8722 12.8332 16.7814 16.3226C16.2331 18.0763 16.1135 20.052 16.7081 22.1881C17.302 24.3213 18.6006 26.5878 20.8485 28.9385L21.4478 28.3331C19.2831 26.0696 18.0784 23.9356 17.5347 21.9823C16.9917 20.0317 17.1001 18.2346 17.6019 16.6294ZM64.2562 19.0422L50.6281 5.19604L37 19.0422L50.6281 32.8883L64.2562 19.0422Z" fill="#F5F1EE"/>
<path id="Vector" d="M11 40.0002C11 53.1302 30.8031 60.0001 50.3701 60.0001C69.937 60.0001 89.7402 53.1302 89.7402 40.0002V30.0002C89.7402 43.1302 69.937 50.0002 50.3701 50.0002C30.8031 50.0002 11 43.1302 11 30.0002V40.0002Z" fill="#F5F1EE"/>
<path id="Vector_2" d="M11 59.9996C11 73.1295 30.8031 79.9995 50.3701 79.9995C69.937 79.9995 89.7402 73.1295 89.7402 59.9996V49.9996C89.7402 63.1296 69.937 69.9996 50.3701 69.9996C30.8031 69.9996 11 63.1296 11 49.9996V59.9996Z" fill="#F5F1EE"/>
<path id="Vector_3" d="M11 80.0001C11 93.13 30.8031 100 50.3701 100C69.937 100 89.7402 93.13 89.7402 80.0001V70.0001C89.7402 83.1301 69.937 90 50.3701 90C30.8031 90 11 83.1301 11 70.0001V80.0001Z" fill="#F5F1EE"/>
</g>
</g>
</svg>

<svg xmlns="http://www.w3.org/2000/svg" width="100" height="100" fill="#f5f1ee" xmlns:v="https://vecta.io/nano"><path fill-rule="evenodd" d="M89.74 20c0 13.13-19.803 20-39.37 20S11 33.13 11 20 30.803 0 50.37 0s39.37 6.87 39.37 20zm-11.97-8.671c1.261.957 2.623 2.235 3.742 3.689s1.982 3.065 2.275 4.689c.291 1.607.032 3.25-1.121 4.82-1.163 1.584-3.254 3.119-6.675 4.436l.335.831c3.502-1.348 5.748-2.957 7.036-4.712a6.9 6.9 0 0 0 1.271-5.496c-.329-1.822-1.28-3.569-2.456-5.096s-2.603-2.864-3.917-3.863l-.49.703zm-60.168 5.3c1.009-3.228 3.616-5.69 5.728-6.961l-.461-.769c-2.216 1.334-4.997 3.935-6.088 7.424-.548 1.754-.668 3.729-.073 5.865s1.892 4.4 4.14 6.75l.599-.605c-2.165-2.264-3.369-4.398-3.913-6.351s-.435-3.748.067-5.353zm46.654 2.413L50.628 5.196 37 19.042l13.628 13.846 13.628-13.846z"/><path d="M11 40c0 13.13 19.803 20 39.37 20s39.37-6.87 39.37-20V30c0 13.13-19.803 20-39.37 20S11 43.13 11 30v10zm0 20c0 13.13 19.803 20 39.37 20s39.37-6.87 39.37-20V50c0 13.13-19.803 20-39.37 20S11 63.13 11 50v10zm0 20c0 13.13 19.803 20 39.37 20s39.37-6.87 39.37-20V70c0 13.13-19.803 20-39.37 20S11 83.13 11 70v10z"/></svg>
